source/img/how-learn__plus.svg

<svg width="97" height="97" viewBox="0 0 97 97" fill="none" xmlns="http://www.w3.org/2000/svg">
<path d="M67.8239 44.7721H52.38V29.3282C52.38 28.2631 51.5051 27.3882 50.44 27.3882H46.56C45.4949 27.3882 44.62 28.2631 44.62 29.3282V44.7721H29.1761C28.111 44.7721 27.2361 45.647 27.2361 46.7121V50.5921C27.2361 51.6572 28.111 52.5321 29.1761 52.5321H44.62V67.976C44.62 69.0411 45.4949 69.916 46.56 69.916H50.44C51.5051 69.916 52.38 69.0411 52.38 67.976V52.5321H67.8239C68.889 52.5321 69.7639 51.6572 69.7639 50.5921V46.7121C69.7639 45.647 68.889 44.7721 67.8239 44.7721Z" fill="url(#paint0_linear)"/>
<path d="M72.2745 97H24.7255C11.0884 97 0 85.9116 0 72.2745V24.7255C0 11.0884 11.0884 0 24.7255 0H72.2745C85.9116 0 97 11.0884 97 24.7255V72.2745C97 85.9116 85.9116 97 72.2745 97ZM24.7255 3.80392C13.1806 3.80392 3.80392 13.1806 3.80392 24.7255V72.2745C3.80392 83.8194 13.1806 93.1961 24.7255 93.1961H72.2745C83.8194 93.1961 93.1961 83.8194 93.1961 72.2745V24.7255C93.1961 13.1806 83.8194 3.80392 72.2745 3.80392H24.7255Z" fill="url(#paint1_linear)"/>
<defs>
<linearGradient id="paint0_linear" x1="48.5" y1="26.2076" x2="48.5" y2="71.1327" gradientUnits="userSpaceOnUse">
<stop stop-color="#70DFFF"/>
<stop offset="1" stop-color="#70AFFF"/>
</linearGradient>
<linearGradient id="paint1_linear" x1="48.5" y1="0" x2="48.5" y2="97" gradientUnits="userSpaceOnUse">
<stop stop-color="#00C6FF"/>
<stop offset="1" stop-color="#0072FF"/>
</linearGradient>
</defs>
</svg>

<?xml version="1.0" encoding="utf-8"?>
<!-- Generator: Adobe Illustrator 24.1.3, SVG Export Plug-In . SVG Version: 6.00 Build 0)  -->
<svg version="1.1" id="Слой_1" xmlns="http://www.w3.org/2000/svg" xmlns:xlink="http://www.w3.org/1999/xlink" x="0px" y="0px"
	 viewBox="0 0 97 97" style="enable-background:new 0 0 97 97;" xml:space="preserve">
<style type="text/css">
	.st0{fill:#57ACFF;}
	.st1{fill:#182F52;}
</style>
<path class="st0" d="M67.8,44.8H52.4V29.3c0-1.1-0.9-1.9-1.9-1.9h-3.9c-1.1,0-1.9,0.9-1.9,1.9v15.4H29.2c-1.1,0-1.9,0.9-1.9,1.9v3.9
	c0,1.1,0.9,1.9,1.9,1.9h15.4V68c0,1.1,0.9,1.9,1.9,1.9h3.9c1.1,0,1.9-0.9,1.9-1.9V52.5h15.4c1.1,0,1.9-0.9,1.9-1.9v-3.9
	C69.8,45.6,68.9,44.8,67.8,44.8z"/>
<path class="st1" d="M72.3,97H24.7C11.1,97,0,85.9,0,72.3V24.7C0,11.1,11.1,0,24.7,0h47.5C85.9,0,97,11.1,97,24.7v47.5
	C97,85.9,85.9,97,72.3,97z M24.7,3.8c-11.5,0-20.9,9.4-20.9,20.9v47.5c0,11.5,9.4,20.9,20.9,20.9h47.5c11.5,0,20.9-9.4,20.9-20.9
	V24.7c0-11.5-9.4-20.9-20.9-20.9H24.7z"/>
</svg>
